svgs/thin/hashtag.svg

<svg xmlns="http://www.w3.org/2000/svg" viewBox="0 0 448 512"><!--! Font Awesome Pro 6.3.0 by @fontawesome - https://fontawesome.com License - https://fontawesome.com/license (Commercial License) Copyright 2023 Fonticons, Inc. --><path d="M440 152h-108.6l20.47-110.5c.7813-4.343-2.062-8.531-6.406-9.343c-4.562-.9062-8.531 2.062-9.344 6.406L315.1 152H163.4l20.47-110.5C184.7 37.16 181.8 32.98 177.5 32.16C172.9 31.26 168.9 34.23 168.1 38.57L147.1 152H40c-4.406 0-8 3.569-8 7.975c0 4.406 3.594 8.024 8 8.024h104.1L111.6 344H8c-4.406 0-8 3.584-8 7.989s3.594 8.009 8 8.009h100.6l-20.47 110.5c-.7813 4.343 2.062 8.531 6.406 9.343C95.03 479.1 95.53 480 96 480c3.781 0 7.156-2.687 7.875-6.531l21.01-113.5h151.7l-20.47 110.5c-.7813 4.343 2.062 8.531 6.406 9.343C263 479.1 263.5 480 264 480c3.781 0 7.156-2.687 7.875-6.531l21.01-113.5H408c4.406 0 8-3.603 8-8.009s-3.594-7.989-8-7.989h-112.1l32.59-175.1H440c4.406 0 8-3.618 8-8.024C448 155.6 444.4 152 440 152zM279.6 344H127.9L160.4 168h151.7L279.6 344z"/></svg>

<svg xmlns="http://www.w3.org/2000/svg" viewBox="0 0 448 512"><!-- Font Awesome Pro 6.0.0-alpha2 by @fontawesome - https://fontawesome.com License - https://fontawesome.com/license (Commercial License) --><path d="M440 152.028H331.406L351.875 41.506C352.656 37.163 349.812 32.976 345.469 32.163C340.906 31.257 336.937 34.226 336.125 38.569L315.111 152.028H163.406L183.875 41.506C184.656 37.163 181.812 32.976 177.469 32.163C172.906 31.257 168.938 34.226 168.125 38.569L147.111 152.028H40C35.594 152.028 32 155.621 32 160.027S35.594 168.027 40 168.027H144.148L111.557 344.012H8C3.594 344.012 0 347.605 0 352.011C0 356.417 3.594 360.01 8 360.01H108.594L88.125 470.532C87.344 474.875 90.188 479.063 94.531 479.875C95.031 479.969 95.531 480 96 480C99.781 480 103.156 477.313 103.875 473.469L124.889 360.01H276.594L256.125 470.532C255.344 474.875 258.188 479.063 262.531 479.875C263.031 479.969 263.531 480 264 480C267.781 480 271.156 477.313 271.875 473.469L292.889 360.01H408C412.406 360.01 416 356.417 416 352.011C416 347.605 412.406 344.012 408 344.012H295.852L328.443 168.027H440C444.406 168.027 448 164.433 448 160.027S444.406 152.028 440 152.028ZM279.557 344.012H127.852L160.443 168.027H312.148L279.557 344.012Z"/></svg>
